!!!COM: Music21
!!!OTL: hornpipe_Swanton-Coffee-House
!!!OMV: hornpipe_Swanton-Coffee-House
**kern
*clefG2
*k[b-e-]
*M4/4
=1
8b-L
8fJ
8dL
8B-J
8dL
8fJ
8aL
8ddJ
=
8ccL
8b-J
8ccL
8ddJ
8ccL
8ddJ
8ccL
8b-J
=
8b-L
8fJ
8dL
8B-J
8dL
8fJ
8b-L
8ddJ
=
8ffL
8ggJ
8ffL
8ddJ
4b-
4b-
=||
*M4/4
8b-L
8fJ
8dL
8B-J
8dL
8fJ
8aL
8ddJ
!!linebreak:original
=
8ccL
8b-J
8ccL
8ddJ
8ccL
8ddJ
8ccL
8b-J
=
8b-L
8fJ
8dL
8B-J
8dL
8fJ
8b-L
8ddJ
=
8ffL
8ggJ
8ffL
8ddJ
4b-
4b-
=||
8b-L
8fJ
8ccL
8fJ
8ddL
8fJ
8ccL
8fJ
=
8b-L
8fJ
8ddL
8b-J
4cc
4cc
!!linebreak:original
=
8b-L
8fJ
8b-L
8ddJ
8ffL
8bb-J
8ffL
8ddJ
=
8ccL
8b-J
8ccL
8ddJ
4b-
4b-
=||
8b-L
8fJ
8ccL
8fJ
8ddL
8fJ
8ccL
8fJ
=
8b-L
8fJ
8ddL
8b-J
4cc
4cc
=
8b-L
8fJ
8b-L
8ddJ
8ffL
8bb-J
8ffL
8ddJ
=
8ccL
8b-J
8ccL
8ddJ
4b-
4b-
=||
*-
